X: 3
T: The Humours Of Ballyloughlin
R: jig
M: 6/8
L: 1/8
K: Dmix
|:A3 AGE|GED (3DDD D|c2A ded|cAG F!open!E{G}D|
(3.A.B.A .A {d}AGE|~G3 !slide!cGE|D(3DDD DFA| D(3DDD D2 B:|
|:!slide!Tc3 {d}cBc|{d}cAG AB^c|.d.e.d .d.f.d|dAF DFA|
c{d}cA dcB|cAG FGE|D(3DDD DFA| D(3DDD D2 e:|
|:uf.d.d {a}ged|uf.d.d {a}ged|(3.B.^c.d e !slide!ged|(3.B.^c.d e !slide!ged|
uf.d.d {a}ged|uf.d.d {a}ged|^cde gag| ed^c d2 B:|
|:A.A.D A.A.G|!slide!~F3 {A}GED|(3.EEE E .EFD|(3.EEE E .EFA|
~A3 dAG|~F3 GEA|D(3DDD DFA| D(3DDD D2 A:|


Tune 210	Setting 22800

